X: 54
T:Cainc Ieuan y Telynor Dall
T:Blind Ieuan the Harpist's Tune
M:2/4
L:1/8
Q:180
S:Cadw Twmpath Collection
R:March
A:Wales
Z:brian_martin12345@yahoo.com
K:D
A|dc/B/ AG|F>G AF|E>F GE|FD DE|
FG AF|GA Bc|d2c2|d2z:||
d/e/|fd d/f/e/d/|ec c/e/d/c/|dB B/d/c/B/|cA Ad/e/|
fd d/f/e/d/|ec c/e/d/c/|dB B/d/c/B/|cA A/c/B/A/|
BG G/B/A/G/|AF F/A/G/F/|GE E/G/F/E/|FD D>E|
FG AF|GA Bc|d2c2|d2z:||
